svgs/sharp-light/square-3.svg

<svg xmlns="http://www.w3.org/2000/svg" viewBox="0 0 448 512"><!--! Font Awesome Pro 6.6.0 by @fontawesome - https://fontawesome.com License - https://fontawesome.com/license (Commercial License) Copyright 2024 Fonticons, Inc. --><path d="M32 64l0 384 384 0 0-384L32 64zM0 32l32 0 384 0 32 0 0 32 0 384 0 32-32 0L32 480 0 480l0-32L0 64 0 32zM304 151.4l-5.6 4.8-78.9 67.6 19.9-.1c44.4-.2 80.6 35.7 80.6 80.2c0 44.3-35.9 80.2-80.2 80.2l-36 0c-27.6 0-53.5-13-70.1-35l-2.5-3.4-9.6-12.8 25.6-19.2 9.6 12.8 2.5 3.4c10.5 14 27 22.2 44.5 22.2l36 0c26.6 0 48.2-21.6 48.2-48.2c0-26.7-21.7-48.3-48.4-48.2l-63.5 .3-16.1 .1 0-23.4 5.6-4.8L244.7 160 144 160l-16 0 0-32 16 0 144 0 16 0 0 23.4z"/></svg>

<svg xmlns="http://www.w3.org/2000/svg" viewBox="0 0 448 512"><!--! Font Awesome Pro 6.4.2 by @fontawesome - https://fontawesome.com License - https://fontawesome.com/license (Commercial License) Copyright 2023 Fonticons, Inc. --><path d="M32 64V448H416V64H32zM0 32H32 416h32V64 448v32H416 32 0V448 64 32zM304 151.4l-5.6 4.8-78.9 67.6 19.9-.1c44.4-.2 80.6 35.7 80.6 80.2c0 44.3-35.9 80.2-80.2 80.2h-36c-27.6 0-53.5-13-70.1-35l-2.5-3.4-9.6-12.8 25.6-19.2 9.6 12.8 2.5 3.4c10.5 14 27 22.2 44.5 22.2h36c26.6 0 48.2-21.6 48.2-48.2c0-26.7-21.7-48.3-48.4-48.2l-63.5 .3-16.1 .1V232.6l5.6-4.8L244.7 160H144 128V128h16H288h16v23.4z"/></svg>
